X:1
T:Under The Sea
%%score 1 2 3 { 4 | 5 }
L:1/8
Q:1/4=140
M:4/4
K:Bb
V:1 treble nm="Voice" snm="Vo."
V:2 treble nm="Voice" snm="Vo."
V:3 treble nm="Solo" snm="Solo"
V:4 treble nm="Piano" snm="Pno."
V:5 bass 
V:1
!f!"^Under the Sea" .C.F.B .d2 .d2 .F | .c2 .e2 .d2 .B2 | .B,.D.F .B2 .B2 .F | .A2 .c2 B4 | %4
w: La da da da da da|da da da da|La da da da da da|da da da|
 .D.F.B .d2 .d2 .F | .c2 .e2 .d2 .B2 | .B,.D.F .B2 .B2 .F | .A2 .c2 B4 | z8 | z8 | %10
w: La da da da da da|da da da da|La da da da da da|da da da|||
 z2 .D .F2 .F2 .D | .C2 .F2 D4 | z8 | z8 | z2 .D .F2 .F2 .D | .C2 .F2 D4 | z2 .A .B2 .B2 .G | %17
w: in some- bo- dy|el- se's lake|||But that is a|big mis- take|Just look at the|
 .F2 .B2 .F2 .B2 | z2 .A .c2 .c2 .B | .d2 .c2 B4 | z2 .A .B2 .B2 .G | .F2 .B2 .F2 .B2 | %22
w: world a- round you|Right here on the|o- cean floor|Such won- der- ful|things sur- round you|
 z2 .A .c2 .c2 .B | .d2 .c2 B4 | z2 z d2 c2 B | G8- | G3 d2 c2 B | c8- | c3 d2 c2 B | %29
w: What more is you|look- in' for?|Un- der the|Sea-|* Un- der the|sea-|* Dar- ling, it's|
 G F2 d2 c2 B | G F2 d2 c2 B | B8- | B3 z z4 | .D.F.B .d2 .d2 .F | .c2 .e2 .d2 .B2 | %35
w: bet- ter down where it's|wet- ter Un- der the|sea!-||La da da da da da|da da da da|
 .B,.D.F .B2 .B2 .F | .A2 .c2 B4 | z8 |[K:G][M:3/4]"^Les Poissons" z2 D2 D2 | z2 D2 D2 | z2 D2 D2 | %41
w: La da da da da da|da da da||la la|la la|la la|
 z2 D2 D2 | z2 D2 D2 | z2 D2 D2 | z6 | z6 | z6 | z6 | z6 | z6 | z6 | z6 | z6 | z6 | z6 | z6 | z6 | %57
w: la la|la la|la la||||||||||||||
 z6 | z6 | z6 | z6 | z2 B,2 C2 | D2 B,2 C2 | D2 B,2 CD- | D2 B,2 CD- | D2 B,2 D2 | G2 G2 G2 | %67
w: ||||Les poi-|ssons Les poi-|ssons, Hee hee hee|* haw haw haw|* With a|clea- ver I|
 G2 A2 G2 | E6 | z2 E2 _G2 | G2 E2 _G2 | G4 _GE | _G2 D2 E2 | _G4 ED | C2 D2 E2 | _G G3 A2 | G6 || %77
w: hack them in|two.|I pull|out what's in-|side, and I|serve it up|fried, God, I|love lit- tle|fish- ies Don't|you?|
[K:C][M:4/4][Q:1/4=110]"^Kiss The Girl" z8 | z8 | z8 | z8 | z8 | z8 | z2!p! z4 CD | D E2 z z4 | %85
w: ||||||There you|see her|
 CCCC C2 DE- | E z z2 z4 | FFFF F2 CA, | z A,A, F2 F2 F | FE z E2 z z2 | z4 z GGA | AG z G2 z FE | %92
w: sit- ting there ac- ross the way||she don't have a lot to say|but there's some- thing a-|bo- ut her.|And you don't|know * why but you're|
 (3F2 F2 E2 FEFE | z A z G E2 z2 | z2 GG GGGG | AB z c z AAA | AG z G z GGA | z A z G G z z2 | %98
w: dy- ing to try you wan- na|kiss de girl|Sha la la la la la|My, oh my look at the|boy so shy, he ain't gonna|kiss de girl|
 z2 GG GGGG | AB z c z AAA | AG z G z DDE | z D z C C z z2 ||[K:F]"^Part of your world" z8 | z8 | %104
w: Sha la la la la la|Ain't that sad, Ain't it a|shame, too bad You gon- na|miss de girl|||
 z8 | z8 | z8 | z8 | z8 | z8 | z8 | z8 | z8 | DEFF- F2 z2 | EFGG- G2 z2 | DEFF- F E2 F | %116
w: |||||||||Look at this trove, *|trea- sures un- told. *|How ma- ny won- * ders can|
 (3E2 F2 G2 G2 z2 | EFGG- G2 FG | F4 (3F2 G2 A2 | A3 G G2 z2 | FFFF- FG A2 | C C2 C- C4 | %122
w: one ca- vern hold?|look- ing a- round * here you|think, sure, she's got|e- 'vry- thing.|I wan- na be * where the|peo- ple are *|
 CCCC- CD F2 | C D2 F2 G2 z | FFF F2 G A2 | CCC C2 D z F | G8 | FFFF- FG A2 | C C2 C- C4 | %129
w: I wan- na see, * wan- na|see them dan- cing,|walk- ing a- round on those,|What do you call them? oh,|feet.|Flip- in' your fins * you don't|get too far *|
 CCCC- CD F2 | C D2 F2 G2 z | FFF F2 G A2 | CCC C2 D z2 | G8 | (3F2 G2 A2 A4 | (3F2 G2 A2 A4 | %136
w: legs are re- qui- * red for|jump- ing, dan- cing.|Strol- ling a- round down the,|what's the word a- gain?|Street|Up where they walk,|Up where they talk|
 (3F2 G2 A2 c3 B | B2 Ac B4 | BA-AF C4 | BA-AF C4 |"^rit." (3C2 F2 E2 F4- | !fermata!F8 |] %142
w: Up where they stay all|day in the sun,|Wan- der- * ing free,|wish I * could be|Part of that world||
V:2
 z8 | z8 | z8 | z8 |!f! .D.F.B .B2 .B2 .F | .A2 .c2 .B2 .F2 | .B,.D.F .F2 .F2 .F | .F2 .A2 F4 | %8
w: ||||La da da da da da|da da da da|La da da da da da|da da da|
 z8 | z8 | z2 .D .D2 .D2 .D | .C2 .C2 B,4 | z8 | z8 | z2 .D .D2 .D2 .D | .C2 .C2 B,4 | %16
w: ||in some- bo- dy|el- se's lake|||But that is a|big mis- take|
 z2 .A .B2 .B2 .G | .D2 .F2 .D2 .F2 | z2 .A .c2 .c2 .B | .F2 .E2 D4 | z2 .A .B2 .B2 .G | %21
w: Just look at the|world a- round you|Right here on the|o- cean floor|Such won- der- ful|
 .D2 .F2 .D2 .F2 | z2 .A .c2 .c2 .B | .d2 .c2 B4 | z4 z4 | GFG (B3 G2) | FFFF z4 | AFA (c3 A2) | %28
w: things sur- round you|What more is you|look- in' for?||Un- der the Sea- *|Un- der the Sea|Un- der the Sea *|
 BBBB z4 | G F2 d2 c2 B | G F2 d2 c2 B | F8- | F3 z z4 |!f! .D.F.B .B2 .B2 .F | .A2 .c2 .B2 .F2 | %35
w: Un- der the Sea|bet- ter down where it's|wet- ter Un- der the|sea!-||La da da da da da|da da da da|
 .B,.D.F .F2 .F2 .F | .F2 .A2 F4 | z8 |[K:G][M:3/4] z2 B,2 B,2 | z2 B,2 B,2 | z2 B,2 B,2 | %41
w: La da da da da da|da da da||la la|la la|la la|
 z2 B,2 B,2 | z2 B,2 B,2 | z2 B,2 B,2 | z6 | z6 | z6 | z6 | z6 | z6 | z6 | z6 | z6 | z6 | z6 | z6 | %56
w: la la|la la|la la|||||||||||||
 z6 | z6 | z6 | z6 | z6 | z2 B,2 C2 | D2 B,2 C2 | D2 B,2 B,B,- | B,2 B,2 B,B,- | B,2 B,2 D2 | %66
w: |||||Les poi-|ssons Les poi-|ssons, Hee hee hee|* haw haw haw|* With a|
 E2 E2 E2 | E2 E2 E2 | E6 | z2 E2 _G2 | G2 E2 _G2 | G4 _GE | _G2 D2 E2 | _G4 ED | C2 C2 C2 | %75
w: clea- ver I|hack them in|two.|I pull|out what's in-|side, and I|serve it up|fried, God, I|love lit- tle|
 D D3 F2 | E6 ||[K:C][M:4/4]"_Percussion" z8 | z8 | z8 | z8 | z8 | z8 | z2!p! z4 CD | D E2 z z4 | %85
w: fish- ies Don't|you?|||||||There you|see her|
 CCCC C2 DE- | E z z2 z4 | FFFF F2 CA, | z A,A, F2 F2 F | FE z E2 z z2 | z4 z GGA | AG z G2 z FE | %92
w: sit- ting there ac- ross the way||she don't have a lot to say|but there's some- thing a-|bout * her|And you don't|know * why but you're|
 (3F2 F2 E2 FEFE | z F z E C2 z2 | z2 EE EEEE | FG z A z FFF | FE z E z EEF | z F z E E z z2 | %98
w: dy- ing to try you wan- na|kiss de girl|Sha la la la la la|My, oh my look at the|boy so shy he ain't gonna|kiss de girl|
 z2 EE EEEE | FG z A z FFF | FE z E z B,B,C | z B, z A, A, z z2 ||[K:F] z8 | z8 | z8 | z8 | z8 | %107
w: Sha la la la la la|Ain't that sad, Ain't it a|shame, too bad You gon- na|miss de girl||||||
 z8 | z8 | z8 | z8 | z8 | z8 | DEFF- F2 z2 | EFGG- G2 z2 | DEFF- F E2 F | (3E2 F2 G2 G2 z2 | %117
w: ||||||Look at this trove, *|trea- sures un- told. *|How ma- ny won- * ders can|one ca- vern hold?|
 EFGG- G2 FG | F4 (3F2 G2 A2 | A3 G G2 z2 | FFFF- FE F2 | A, A,2 A,- A,4 | A,A,A,A,- A,B, D2 | %123
w: look- ing a- round * here you|think, sure, she's got|e- 'vry- thing.|I wan- na be * where the|peo- ple are *|I wan- na see, * wan- na|
 A, B,2 D2 E2 z | DDD D2 E F2 | A,A,A, A,2 B, z D | E8 | DDDD- DE F2 | A, A,2 A,- A,4 | %129
w: see them dan- cing,|walk- ing a- round on those,|What do you call them? oh,|feet.|Flip- in' your fins * you don't|get too far *|
 A,A,A,A,- A,B, D2 | A, B,2 D2 E2 z | DDD D2 E F2 | A,A,A, A,2 B, z2 | E8 | (3F2 G2 A2 A4 | %135
w: legs are re- qui- * red for|jump- ing, dan- cing,|Strol- ling a- round down the,|what's the word a- gain?|Street.|Up where they walk,|
 (3F2 G2 A2 A4 | (3F2 G2 A2 c3 B | B2 Ac B4 | GF-FD C4 | GF-FD C4 | (3C2 D2 E2 F4- | !fermata!F8 |] %142
w: Up where they talk,|Up where they stay all|day in the sun,|Wan- der- * ing free,|wish I * could be|Part of that world||
V:3
 z8 | z8 | z8 | z8 | z8 | z8 | z8 | z8 | z2 .A .B2 .B2 .F | .A2 .c2 .B2 .F2 | z8 | z8 | %12
w: ||||||||The sea- weed is|al- ways green- er|||
 z2 .A .B2 .B2 .F | .A2 .c2 .B2 .F2 | z8 | z8 | z8 | z8 | z8 | z8 | z8 | z8 | z8 | z8 | z8 | z8 | %26
w: You dream a- bout|go- ing up there|||||||||||||
 z8 | z8 | z8 | z8 | z8 | z8 | z8 | z8 | z8 | z8 | z8 | z8 |[K:G][M:3/4] z6 | z6 | z6 | z6 | z6 | %43
w: |||||||||||||||||
 z6 | z2 B,2 C2 | D2 B,2 C2 | D2 B,2 C2 | D4 B,C | D2 B,2 C2 | D2 B,2 D2 | G2 z2 DD | D2 C2 B,2 | %52
w: |Les poi-|ssons, Le poi-|ssons, How I|love les poi-|ssons, Love to|chop and to|serve lit- tle|fi- * *|
 C6 | z2 C2 D2 | E C3 D2 | E2 C2 D2 | E C3 D2 | E2 C2 E2 | A2 E2 E2 | E2 D3 _D | D6 | z6 | z6 | %63
w: sh|First I|cut off their|heads, then I|pull out their|bones, Ah mais|oui ca c'est|tou- jours de-|lice|||
 z6 | z6 | z6 | z6 | z6 | z6 | z6 | z6 | z6 | z6 | z6 | z6 | z6 |"_(spoken)" z6 ||[K:C][M:4/4] z8 | %78
w: |||||||||||||||
 z8 |"_Strings" z8 | z8 |"_Wind" z8 | z8 |"_Words" z8 | z8 | z8 | z8 | z8 | z8 | z8 | z8 | z8 | %92
w: ||||||||||||||
 z8 |"_Sing with me!" z8 | z8 | z8 | z8 | z8 | z8 | z8 | z8 | z8 ||[K:F] z8 | z8 | z8 | z8 | %106
w: ||||||||||||||
 DEFF- F2 z2 | EFGG- G2 z2 | DEFF- F E2 F | EFGG- G2 z2 | EFGG- G2 FG | F3 D FG A2 | A3 G G2 z2 | %113
w: Look at this stuff, *|is- n't it neat? *|would- n't you think * my co-|lec- tion's com- plete? *|Would- n't you think * I'm the|girl, the girl who has|ev- 'ry- thing?|
 z8 | z8 | z8 | z8 | z4 z4 | z8 | z8 | z8 | z8 | z8 | z8 | z8 | z8 | z8 | z8 | z8 | z8 | z8 | z8 | %132
w: |||||||||||||||||||
 z8 | z8 | z8 | z8 | z8 | z8 | z8 | z8 | z8 | z8 |] %142
w: ||||||||||
V:4
 CFB[Bd]- [Bd] [Bd]2 F | [Ac]2 [ce]2 [Bd]2 [FB]2 | B,DF[FB]- [FB] [FB]2 C | [FA]2 [Ec]2 [DB]2 z2 | %4
 [DF]2 BB- B B2 B | [CEA]2 c2 [DB]2 F2 | [B,D]2 DF- F F2 D | [A,C]2 F2 [DF]4 | z2 .A .B2 .B2 .F | %9
 [CEA]2 c2 [DB]2 F2 | [B,D]2 DF- F F2 D | [A,C]2 F2 [B,D]4 | z2 .A .B2 .B2 .F | %13
 [CEA]2 c2 [DB]2 F2 | [B,D]2 DF- F F2 D | [A,C]2 F2 [B,D]4 | z2 .A .B2 .B2 .G | [DF]2 B2 [DF]2 B2 | %18
 [CEA]2 Ac- c c2 B | [DFd]2 c2 [DFB]4 | [EG]2 GB- BB G2 | [DF]2 B2 [DF]2 B2 | [CEA]2 Ac- c c2 B | %23
 [DFd]2 c2 [DFB]4 | [DFB]2 z2 z4 | [B,EG]8 | [DF]3 d- dc B2 | [EAc]8 | [DF]3 d2 c2 B | %29
 [B,EG] F2 d2 c2 B | [CEG] F2 d2 c2 B | [FBd]8 | z8 | DFB[Bd]- [Bd] [Bd]2 F | %34
 [Ac]2 [ce]2 [Bd]2 [FB]2 | B,DF[FB]- [FB] [FB]2 C | [FA]2 [EAc]2 [DB]4 | z8 |[K:G][M:3/4] G6 | %39
 F4 z2 | E2 z4 | G4 F2 | z6 | z6 | z6 | [B,EG]6 | [A,DF]6 | [B,EG]6 | [F,B,D]6 | [B,EG]6 | [=FG]6 | %51
 [DE]2 [CE]2 [B,E]2 | [CD]6 | [CEA]6 | [CE^G]6 | [CEG]6 | [A,DF]6 | [CEA]6 | [GA]6 | [B,EG]6 | %60
 [DF]6 | [B,EG]6 | [A,DF]6 | [B,EG]6 | [F,B,D]6 | [DGB]6 | [DGB]6 | [EG]2 [EGA]2 [EG]2 | [CE]6 | %69
 c6 | _B6 | G6 | ^G6 | E6 | A6 | B2 G2 B2 | B2 z4 ||[K:C][M:4/4] z8 | z8 | [G,C]8- | %80
 [G,C]6 [A,D]2 | [G,C]8- | [G,C]2 [A,D]2 [CF]2 [B,E]2 | z4 z [EG][EG][FA] | [EG]8- | %85
 [EG]4 z [EG][EG][DF] | [EG]8 | [A,F]4 [CF]4 | A,2 D2 C2 F2 | E2 D6- | D2 z4 z2 | [EG]8 | %92
 (3[FA]2 [FA]2 [EG]2 [FA][EG][FA][EG] | z [FA] z [EG] [CE]2 z2 | %94
 z2 [CEG][CEG] [CEG][CEG][CEG][CEG] | [DFA][EGB] z [FAc] z [DFA][DFA][DFA] | %96
 [DFA][CEG] z [CEG] z [CEG][CEG][DFA] | z [DFA] z [CEG] [CEG] z z2 | %98
 z2 [CEG][CEG] [CEG][CEG][CEG][CEG] | [DFA][EGB] z [FAc] z [DFA][DFA][DFA] | %100
 [DFA][CEG] z [CEG] z [G,B,D][G,B,D][A,CE] | z [G,B,D] z [F,A,C] [F,A,C]4 ||[K:F] Bcdf Bcdf | %103
 cdeg cdeg | Bcdf Bcdf | cdeg cdeg | Bcdf Bcdf | cdeg cdeg | Bcdf Bcdf | cdeg cdeg | e8 | d8 | %112
 [fa]3 [eg] [eg]2 z2 | Bcdf Bcdf | cdeg cdeg | Bcdf Bcdf | cdeg cdeg | e8 | d8 | %119
 [fa]3 [eg] [eg]2 z2 | ffff- fg a2 | c c2 c- c4 | cccc- cd f2 | c d2 f2 g2 z | fff f2 g a2 | %125
 ccc c2 d z f | g8 | ffff- f[eg] [fa]2 | [Ac] [Ac]2 [Ac]- [Ac]4 | %129
 [Ac][Ac][Ac][Ac]- [Ac][Bd] [df]2 | [Ac] [Bd]2 [df]2 [eg]2 z | [df][df][df] [df]2 [eg] [fa]2 | %132
 [Ac][Ac][Ac] [Ac]2 [Bd] z [df] | [eg]8 | (3[df]2 [eg]2 [fa]2 [fa]4 | (3[df]2 [eg]2 [fa]2 [fa]4 | %136
 (3[df]2 [eg]2 [fa]2 [ac']3 [gb] | [gb]2 [fa][ac'] [gb]4 | [gb][fa]-[fa][df] [Ac]4 | %139
 [gb][fa]-[fa][df] [Ac]4 | (3[Ac]2 [df]2 [ce]2 [df]4- | !fermata![df]8 |] %142
V:5
 z8 | z8 | z8 | z8 | B,,3 D,- D,4 | F,2 F,,2 B,,2 B,,2 | B,,3 D,- D,4 | F,2 G,,2 B,,2 B,,2 | %8
 B,,3 D,- D,4 | F,2 F,,2 B,,2 B,,2 | B,,3 D,- D,4 | F,2 F,,2 B,,2 B,,2 | B,,3 D,- D,4 | %13
 F,2 F,,2 B,,2 B,,2 | B,,3 D,- D,4 | F,2 F,,2 B,,2 B,,2 | E,,3 G,,- G,,2 B,,2 | D,,4 B,,4 | %18
 F,,3 A,,- A,,2 C,2 | B,,4 B,,4 | E,,3 G,,- G,,2 B,,2 | D,,4 B,,4 | F,,3 A,,- A,,2 C,2 | %23
 B,,4 B,,2 B,,2 | B,,2 z2 z4 | E,,3 G,,- G,,2 B,,2 | B,,2 B,,,2 D,,2 F,,2 | F,,3 A,,- A,,2 C,2 | %28
 B,,2 B,,2 G,,2 F,,2 | E,,3 G,,- G,,2 B,,2 | F,,2 F,,2 A,,2 C,2 | B,,3 D,- D,2 F,2 | z8 | z8 | z8 | %35
 z8 | z8 | z8 |[K:G][M:3/4] G,,2 z2 z2 | D,,2 z2 z2 | G,,2 z2 z2 | D,,2 z2 z2 | G,,2 z2 z2 | %43
 D,,2 z2 z2 | D,,6 | G,,2 z2 z2 | D,,2 z2 z2 | G,,2 z2 z2 | D,,2 z2 z2 | G,,2 z2 z2 | ^G,,6 | %51
 A,,6 | D,,2 z2 z2 | A,,2 z2 z2 | E,,2 z2 z2 | A,,2 z2 z2 | D,,2 z2 z2 | A,,2 z2 z2 | ^A,,2 z2 z2 | %59
 B,,2 G,,2 E,,2 | D,,6 | G,,2 z2 z2 | D,,2 z2 z2 | G,,2 z2 z2 | D,,2 z2 z2 | G,,2 z2 z2 | %66
 B,,2 z2 z2 | C,,2 z2 z2 | G,,2 z2 z2 | C,,2 z2 z2 | ^C,,2 z2 z2 | D,,2 B,,2 G,,2 | E,,2 z2 z2 | %73
 A,,2 z2 z2 | D,,2 z2 z2 | G,,6 | G,,2 z4 ||[K:C][M:4/4]!p! C,2 z G, z2 G,,2 | z C,C,D, C,2 G,,2 | %79
!pp! C,2 z G, z2 G,,2 | z C,C,D, C,2 G,,2 | C,2 z G, z2 G,,2 | z C,C,D, C,2 G,,2 | %83
 C,2 z G, z2 G,,2 | z C,C,D, C,2 G,,2 | C,2 z G, z2 G,,2 | z C,C,D, C,2 G,,2 | F,,2 z C, z2 C,,2 | %88
 z F,,F,,G,, F,,2 F,,2 | C,2 z G, z2 G,,2 | z C,C,D, C,2 G,,2 | G,,8 | G,,4 A,,2 B,,2 | %93
 C,2 z G, z4 | C,3 G,3 G,,2 | F,,3 A,,3 F,2 | E,3 C,3 A,,2 | G,,3 G,,2 G,,A,,B,, | C,3 G,3 G,,2 | %99
 F,,3 A,,3 F,2 | G,3 B,,3 G,,2 | C,3 C,2 z z2 ||[K:F] [F,,B,,D,]8 | [G,,C,E,]8 | [F,,B,,D,]8 | %105
 [G,,C,E,]8 | [F,,B,,D,]8 | [G,,C,E,]8 | [F,,B,,D,]8 | [G,,C,E,]8 | [A,,C,]8 | [B,,D,]8 | G,,8 | %113
 [F,,B,,D,]8 | [G,,C,E,]8 | [F,,B,,D,]8 | [G,,C,E,]8 | [A,,C,]8 | [B,,D,]8 | G,,8 | [A,,F,A,]8 | %121
 [A,,C,F,]8 | [B,,D,F,]8 | [C,E,G,]8 | [D,F,A,]8 | [A,,C,E,]8 | [C,E,G,]8 | [A,,F,A,]8 | %128
 [A,,C,F,]8 | [B,,D,F,]8 | [G,,C,E,]8 | [A,,D,F,]8 | [A,,C,E,]8 | [C,E,G,]8 | z4 [F,A,C]4- | %135
 [F,A,C]4 [_E,A,C]4- | [E,A,C]4 [D,A,C]4- | [D,A,C]4 [F,B,_D]4 | z4 [F,A,C]4 | z4 [E,G,B,]4 | %140
 (3[A,,C,]2 [D,F,]2 [C,E,]2 ((([B,,D,F,]4 | !fermata![F,,A,,C,F,]8))) |] %142

